X:590
T: Flohhatz (288), S. 601
N: T0478
O: Luxemburg
S: Singendes Volk, Esch-Alzette, 1937 posth.]
N: Junglinster, fff Bertrang, um 1890
R: ???]
M: 2/4
L: 1/16
K: G
 | G2G2A2G2 | F2E2D4 |
G2G2A2d2 | B2A2G4 |
G2G2A2G2 | F2E2D4 |
G2G2A2d2 | B2A2G4 |
GGG2A2GG | F2E2D4 |
EEEEG2E2 | E2D2D2
D2 | B,B,B,B,B,2D2 | G2GGG4 |
GGGGA2cc | B2A2G2
GF | EEEEE2GG | DDDDD2z2 |
GGGGA2cc | B2A2G2z2

@@@ Tune index: 8644
